public/logos/18_eu/9.svg

<svg xmlns="http://www.w3.org/2000/svg" viewBox="0 0 38 38"  fill-rule="nonzero" stroke-linejoin="round" stroke-miterlimit="2" xmlns:v="https://vecta.io/nano"><path d="M36.72 18.72c0-9.875-8.125-18-18-18s-18 8.125-18 18 8.125 18 18 18 18-8.125 18-18" fill="#202020"/><path d="M19.21 18.39a2.36 2.36 0 0 0 1.92-.84c.545-.755.801-1.682.72-2.61A7.49 7.49 0 0 0 21 10.8a2.53 2.53 0 0 0-2.22-1.23 2.39 2.39 0 0 0-1.95 1c-.548.922-.799 1.99-.72 3.06a6.38 6.38 0 0 0 .9 3.78 2.54 2.54 0 0 0 2.2.98zm2.55.18c-.68.776-1.468 1.449-2.34 2-.684.322-1.435.477-2.19.45a4.35 4.35 0 0 1-3.42-1.5 6.32 6.32 0 0 1-1.32-4.23A7.39 7.39 0 0 1 14.38 10c1.227-1.322 2.967-2.052 4.77-2 1.232-.01 2.441.337 3.48 1 1.038.648 1.862 1.587 2.37 2.7a11.62 11.62 0 0 1 .81 4.8 15 15 0 0 1-1.35 6.78c-.867 1.777-2.206 3.282-3.87 4.35a11.51 11.51 0 0 1-5.82 1.83l-1.26-1 .36-.54 1.23.09c1.137 0 2.247-.349 3.18-1a6.75 6.75 0 0 0 2.37-2.91c.68-1.767 1.056-3.637 1.11-5.53z" fill="#fff"/></svg>

<?xml version="1.0" encoding="UTF-8" standalone="no"?>
<!DOCTYPE svg PUBLIC "-//W3C//DTD SVG 1.1//EN" "http://www.w3.org/Graphics/SVG/1.1/DTD/svg11.dtd">
<svg width="100%" height="100%" viewBox="0 0 38 38" version="1.1" xmlns="http://www.w3.org/2000/svg" xmlns:xlink="http://www.w3.org/1999/xlink" xml:space="preserve" xmlns:serif="http://www.serif.com/" style="fill-rule:evenodd;clip-rule:evenodd;stroke-linejoin:round;stroke-miterlimit:2;">
    <path d="M36.72,18.72C36.72,8.845 28.595,0.72 18.72,0.72C8.845,0.72 0.72,8.845 0.72,18.72C0.72,28.595 8.845,36.72 18.72,36.72C28.595,36.72 36.72,28.595 36.72,18.72" style="fill:rgb(32,32,32);fill-rule:nonzero;"/>
    <path d="M19.21,18.39C19.946,18.425 20.657,18.114 21.13,17.55C21.675,16.795 21.931,15.868 21.85,14.94C21.97,13.507 21.675,12.07 21,10.8C20.535,10.023 19.686,9.552 18.78,9.57C18.007,9.568 17.279,9.941 16.83,10.57C16.282,11.492 16.031,12.56 16.11,13.63C16.01,14.953 16.324,16.274 17.01,17.41C17.531,18.085 18.359,18.454 19.21,18.39ZM21.76,18.57C21.08,19.346 20.292,20.019 19.42,20.57C18.736,20.892 17.985,21.047 17.23,21.02C15.923,21.06 14.666,20.508 13.81,19.52C12.874,18.316 12.405,16.813 12.49,15.29C12.399,13.347 13.079,11.445 14.38,10C15.607,8.678 17.347,7.948 19.15,8C20.382,7.99 21.591,8.337 22.63,9C23.668,9.648 24.492,10.587 25,11.7C25.606,13.225 25.882,14.861 25.81,16.5C25.894,18.834 25.432,21.156 24.46,23.28C23.593,25.057 22.254,26.562 20.59,27.63C18.85,28.752 16.839,29.385 14.77,29.46L13.51,28.46L13.87,27.92C14.47,27.98 14.87,28.01 15.1,28.01C16.237,28.01 17.347,27.661 18.28,27.01C19.329,26.284 20.151,25.274 20.65,24.1C21.33,22.333 21.706,20.463 21.76,18.57Z" style="fill:white;fill-rule:nonzero;"/>
</svg>
